X:2520
T:High A Half Doubling Scale
O:Kevin's Tune Generator
Q:1/4=78
K:C
M:4/4
L:1/4
%%MIDI gracedivider 4
%%MIDI gchord
%%MIDI beatstring 
[| G {ag}a A {ag}a | B {ag}a c {ag}a | d {ag}a e {ag}a | f {ag}a  g {ag}a | g {ag}a f {ag}a | e {ag}a d {ag}a | c {ag}a B {ag}a | A {ag}a G {ag}a |]



